X:242
T:Never a Dull Moment
C:Svante Kvarnström
H:For Robin Beech and Laurence Beaudry.
N:Do not change to a different key, Fm it is and Fm it should stay :-)
R:jig
M:6/8
L:1/8
K:Fm
F3 AGA | BAB cfg | afg efc | BcA GFE |
D2 A BAB | cBA GAB | cAF BGE | DFc BGE ::
d3 fdf | agf dfa | gfe BcA | GAB efg |
f2 f afa | c'ba fac' |1 bge Beg | afe f2 e :|2 bgb e'c'a | bge f3 |]
